X:0205
T:Jockey to the Fair.
M:6/8
L:1/8
Q:3/8=120
I: :: ::
Z:Jack Campin * www.campin.me.uk * 2009
K:G
D|G2A   B2c |d2g d2c|(Bd).G GFG |(A/B/c).B A2
d|d^cd (ef)g|faf e2g| fed   Ad^c| d3       d2:|
d|afd   afd |c2c B2c| dgd   dgd | c2c      B2
B|e2f   g2f |e2f B2e| e^de  B2A | G2F      E2F|
  G2G   G2B |d3  g3 |dBG    A2B | E2F      G2A|B2g BcA|G3- G2:|
<end>
<start>
